public/svg/icons/write.svg

<svg width="113" height="66" viewBox="0 0 113 66" fill="none" xmlns="http://www.w3.org/2000/svg">
<path fill-rule="evenodd" clip-rule="evenodd" d="M95.4556 17.3244C95.4556 18.4909 94.5099 19.4365 93.3434 19.4365L71.3773 19.4365C70.2108 19.4365 69.2651 18.4909 69.2651 17.3244C69.2651 16.1579 70.2108 15.2123 71.3773 15.2123L93.3434 15.2123C94.5099 15.2123 95.4556 16.1579 95.4556 17.3244Z" fill="#A4BA04"/>
<path fill-rule="evenodd" clip-rule="evenodd" d="M90.3862 28.3073C90.3862 29.4738 89.4406 30.4194 88.2741 30.4194L66.3079 30.4194C65.1414 30.4194 64.1958 29.4738 64.1958 28.3073C64.1958 27.1408 65.1414 26.1952 66.3079 26.1952L88.2741 26.1952C89.4406 26.1952 90.3862 27.1408 90.3862 28.3073Z" fill="#A4BA04"/>
<path fill-rule="evenodd" clip-rule="evenodd" d="M85.3172 39.2902C85.3172 40.4567 84.3715 41.4023 83.205 41.4023L61.2388 41.4023C60.0723 41.4023 59.1267 40.4567 59.1267 39.2902C59.1267 38.1237 60.0723 37.1781 61.2388 37.1781L83.205 37.1781C84.3715 37.1781 85.3172 38.1237 85.3172 39.2902Z" fill="#A4BA04"/>
<path fill-rule="evenodd" clip-rule="evenodd" d="M65.2084 5.90146C65.5485 5.14125 66.3035 4.65186 67.1364 4.65186H108.957C109.672 4.65186 110.34 5.01448 110.729 5.61522C111.118 6.21596 111.177 6.97304 110.885 7.62651L89.3408 55.7831C89.0007 56.5433 88.2456 57.0327 87.4128 57.0327H45.5926C44.8767 57.0327 44.2096 56.6701 43.8202 56.0694C43.4308 55.4686 43.3723 54.7116 43.6646 54.0581L65.2084 5.90146ZM68.5053 8.87612L48.8514 52.8085H86.0439L105.698 8.87612H68.5053Z" fill="#434343"/>
<path fill-rule="evenodd" clip-rule="evenodd" d="M111.659 22.5357C112.736 22.9839 113.246 24.2203 112.798 25.2972L96.455 64.5681C96.1273 65.3556 95.358 65.8687 94.505 65.8687H55.9652C54.7987 65.8687 53.853 64.923 53.853 63.7566C53.853 62.5901 54.7987 61.6444 55.9652 61.6444H93.0962L108.898 23.6742C109.346 22.5973 110.582 22.0875 111.659 22.5357Z" fill="#434343"/>
<path fill-rule="evenodd" clip-rule="evenodd" d="M47.271 39.3003C46.6111 39.9601 45.5412 39.96 44.8814 39.3001L43.687 38.1056L34.3345 35.949C34.0258 35.8778 33.7433 35.7213 33.5193 35.4973L9.16555 11.1436C8.50568 10.4838 8.50568 9.41392 9.16555 8.75405C9.82543 8.09418 10.8953 8.09418 11.5552 8.75405L34.7141 31.9129L39.8839 26.7432L17.9197 4.77916L16.5296 6.16921L34.6368 24.2763C35.2967 24.9362 35.2967 26.006 34.6368 26.6659C33.9769 27.3258 32.9071 27.3258 32.2472 26.6659L12.9452 7.364C12.2853 6.70414 12.2853 5.63428 12.9452 4.97441L16.7249 1.19476C17.3848 0.534892 18.4546 0.534892 19.1145 1.19476L43.4683 25.5484C43.6923 25.7724 43.8488 26.0548 43.92 26.3635L46.0766 35.7161L47.2711 36.9107C47.931 37.5706 47.9309 38.6404 47.271 39.3003ZM42.2853 34.3143L41.3121 30.0941L38.0651 33.3412L42.2853 34.3143Z" fill="#F55E21"/>
<path fill-rule="evenodd" clip-rule="evenodd" d="M2.15526 11.8286C1.49538 11.1687 1.49538 10.0989 2.15526 9.43899L9.62148 1.97282C10.2813 1.31295 11.3512 1.31295 12.0111 1.97282C12.671 2.63269 12.671 3.70255 12.0111 4.36242L5.73968 10.6338L27.0511 31.945C27.711 32.6049 27.711 33.6748 27.0511 34.3346C26.3912 34.9945 25.3213 34.9945 24.6615 34.3346L2.15526 11.8286Z" fill="#F55E21"/>
</svg>

<svg width="113" height="66" fill="none" xmlns="http://www.w3.org/2000/svg"><path fill-rule="evenodd" clip-rule="evenodd" d="M95.456 17.324a2.112 2.112 0 01-2.113 2.112H71.377a2.112 2.112 0 110-4.224h21.966c1.167 0 2.113.946 2.113 2.112zm-5.07 10.983a2.112 2.112 0 01-2.112 2.112H66.308a2.112 2.112 0 110-4.224h21.966c1.167 0 2.112.946 2.112 2.112zM85.317 39.29a2.112 2.112 0 01-2.112 2.112H61.239a2.112 2.112 0 110-4.224h21.966c1.166 0 2.112.946 2.112 2.112z" fill="#A4BA04"/><path fill-rule="evenodd" clip-rule="evenodd" d="M65.208 5.901a2.112 2.112 0 011.928-1.25h41.821a2.112 2.112 0 011.928 2.976L89.341 55.783a2.112 2.112 0 01-1.928 1.25h-41.82a2.112 2.112 0 01-1.928-2.975L65.208 5.901zm3.297 2.975L48.851 52.81h37.193l19.654-43.933H68.505z" fill="#434343"/><path fill-rule="evenodd" clip-rule="evenodd" d="M111.659 22.536a2.112 2.112 0 011.139 2.761L96.455 64.568a2.112 2.112 0 01-1.95 1.3h-38.54a2.112 2.112 0 010-4.224h37.131l15.802-37.97a2.112 2.112 0 012.761-1.138z" fill="#434343"/><path fill-rule="evenodd" clip-rule="evenodd" d="M47.271 39.3c-.66.66-1.73.66-2.39 0l-1.194-1.194-9.352-2.157a1.69 1.69 0 01-.816-.452L9.166 11.144a1.69 1.69 0 112.39-2.39l23.158 23.159 5.17-5.17L17.92 4.78l-1.39 1.39 18.107 18.107a1.69 1.69 0 11-2.39 2.39L12.945 7.364a1.69 1.69 0 010-2.39l3.78-3.78a1.69 1.69 0 012.39 0l24.353 24.354c.224.224.38.507.452.816l2.157 9.352 1.194 1.195c.66.66.66 1.73 0 2.39zm-4.986-4.986l-.973-4.22-3.247 3.247 4.22.973z" fill="#F55E21"/><path fill-rule="evenodd" clip-rule="evenodd" d="M2.155 11.829a1.69 1.69 0 010-2.39l7.466-7.466a1.69 1.69 0 012.39 2.39l-6.271 6.27 21.31 21.313a1.69 1.69 0 11-2.39 2.39L2.155 11.829z" fill="#F55E21"/></svg>
